X:148
T: Alter Weihnachtsgesang aus Thueringen
N: A0514
O: Europa, Mitteleuropa, Deutschland
N: Mainzer Cantual 1605 S. 8
R: Romanze, Ballade, Lied, religioeses Lied
M: 4/2
L: 1/4
K: F
F2 | F4G2A4B2 | c2F3GA2G2G2 | F4z2
F2c2c2 | c3BA2c2 | B4A4 | z2
A2G2A2 | c2BAG2A2 | B2G2F4 | z2
G2A2F2 | E4z2
C2 | F4G2A4B2 | c2A4GF | G4F6

